src/site/images/flags/cd.svg

<svg height="480" viewBox="0 0 640 480" width="640" xmlns="http://www.w3.org/2000/svg"><path d="m0 0h640v480h-640z" fill="#007fff"/><path d="m28.8 96h67.2l20.8-67.2 20.8 67.2h67.2l-54.4 41.6 20.8 67.2-54.4-41.6-54.4 41.6 20.8-67.2zm571.2-96-600 360v120h40l600-360v-120z" fill="#f7d618"/><path d="m640 0-640 384v96l640-384z" fill="#ce1021"/></svg>

<svg xmlns="http://www.w3.org/2000/svg" height="480" width="640" viewBox="0 0 640 480">
  <path fill="#007fff" d="M0 0h640v480H0z"/>
  <path d="M28.8 96H96l20.8-67.2L137.6 96h67.2l-54.4 41.6 20.8 67.2-54.4-41.6-54.4 41.6 20.8-67.2L28.8 96zM600 0L0 360v120h40l600-360V0h-40" fill="#f7d618"/>
  <path d="M640 0L0 384v96L640 96V0" fill="#ce1021"/>
</svg>
